X: 428
T: The Boys From the West
B: jims roots
M:2/4
L:1/16
Q: 1/4=100
K:A
V:1 
(3EFG | "A"AGAE CEAc | e^dec Acea | faea daca | "E7"BABc dBGE |
"A"AGAE CEAc | e^dec Acea | "E7"(3fga ed cBAG | "A"A2A2 A2 :|
|:EG | "E7"BABG EGBc | dcdB GBed | "A"cBcA EAce | "E7"e^def e2fg |
"A"agae "E7"fdBG | "A"ABcd eaec | "E7"dfed cBAG | "A"A2A2 A2 :|
% abcbook-tune_id 6298c245828991276f4ccf05


% abcbook-boost 0
% abcbook-tablature 
% abcbook-transpose 
% abcbook-lastupdated 1654178373485
% abcbook-soundfonts 
% abcbook-repeats 1


